icons/window/window-inset-half-left-top.svg

<svg width="14" height="14" viewBox="0 0 14 14" fill="none"
    xmlns="http://www.w3.org/2000/svg">
    <path d="M11 3.5H3C2.44772 3.5 2 3.94772 2 4.5V9.5C2 10.0523 2.44772 10.5 3 10.5H11C11.5523 10.5 12 10.0523 12 9.5V4.5C12 3.94772 11.5523 3.5 11 3.5Z" stroke="red" stroke-linejoin="round"/>
    <path d="M6.5 4.99841H3.5V7H6.5V4.99841Z" fill="green" stroke="green" stroke-linecap="round" stroke-linejoin="round"/>
</svg>

<svg xmlns="http://www.w3.org/2000/svg" width="14" height="14" fill="none" viewBox="0 0 14 14"><path stroke="red" stroke-linejoin="round" d="M11 3.5H3a1 1 0 0 0-1 1v5a1 1 0 0 0 1 1h8a1 1 0 0 0 1-1v-5a1 1 0 0 0-1-1Z"/><path fill="green" stroke="green" stroke-linecap="round" stroke-linejoin="round" d="M6.5 4.998h-3V7h3z"/></svg>
